X:1
T: The Highlands of Scotland
C:
R:Strathspey
Q: 128
K:G
M:4/4
L:1/16
|:B4-B3A Be3 e3f|g3f e3f g3f gb3|B4-B3A Be3 e3f|g3e agfe d3e fd3|
B4-B3A Be3 e3f|g3f e3f g3f gb3|B4-B3A Be3 e3f|g3e agfe d3e fd3|
e3b g3b e3b agfe|d3a f3a d3f bagf|e3b g3b e3b agfe|fefg bagf e6B2|
e3b g3b e3b agfe|d3a f3a d3f bagf|e3b g3b e3b agfe|fefg bagf e8:|
